src/assets/svgs/total-worth.svg

<svg width="60" height="58" viewBox="0 0 60 58" fill="none" xmlns="http://www.w3.org/2000/svg">
<rect opacity="0.05" y="0.469879" width="59.0336" height="57.3825" rx="9.83947" fill="#FA5F1C"/>
<path fill-rule="evenodd" clip-rule="evenodd" d="M39.6812 27.8321L36.2321 24.7936L31.6044 36.7158L39.6812 27.8321ZM31.4439 31.1573L34.7564 22.6277C34.7564 22.6256 34.7575 22.6235 34.7586 22.6214L35.5999 20.4545L31.4439 18.8915V31.1573ZM29.5346 36.0782H23.1612L28.7224 38.1702L29.5346 36.0782ZM28.3527 40.2918L22.4055 38.0543L26.838 41.9581L28.3527 40.2918ZM18.4327 33.9703H29.2754V14.9993H18.4327V33.9703ZM42.0156 28.4476L27.7357 44.1535C27.5438 44.3653 27.2728 44.4929 26.9833 44.5076C26.9637 44.5087 26.9431 44.5097 26.9225 44.5097C26.6547 44.5097 26.3945 44.4128 26.195 44.2368L16.6209 35.8031C16.6165 35.7999 16.6155 35.7947 16.61 35.7904C16.6046 35.7852 16.597 35.782 16.5927 35.7767C16.5287 35.7156 16.4875 35.6397 16.4398 35.566C16.416 35.528 16.3813 35.4953 16.3628 35.4563C16.3607 35.4511 16.3574 35.449 16.3563 35.4447C16.3325 35.3931 16.3314 35.333 16.3173 35.2782C16.3151 35.2719 16.314 35.2645 16.3119 35.2571C16.2967 35.1918 16.2696 35.1307 16.2674 35.0643C16.2663 35.0558 16.2674 35.0474 16.2674 35.039C16.2674 35.0337 16.2642 35.0295 16.2642 35.0242V13.9453C16.2642 13.3625 16.7499 12.8914 17.3484 12.8914H30.3597C30.9593 12.8914 31.444 13.3625 31.444 13.9453V16.6308L37.3847 18.8651C37.9409 19.0738 38.2185 19.6798 38.0081 20.2205L37.0561 22.673L41.931 26.9689C42.3701 27.3568 42.4081 28.0155 42.0156 28.4476ZM22.7698 22.9039C22.7698 23.1947 23.0126 23.4308 23.3119 23.4308H24.3962C25.8914 23.4308 27.1069 24.6123 27.1069 26.0657C27.1069 27.3389 26.1744 28.4023 24.9383 28.6468V29.7545C24.9383 30.3373 24.4536 30.8084 23.854 30.8084C23.2555 30.8084 22.7698 30.3373 22.7698 29.7545V28.7006H21.6855C21.087 28.7006 20.6012 28.2294 20.6012 27.6466C20.6012 27.0638 21.087 26.5927 21.6855 26.5927H24.3973C24.6954 26.5927 24.9383 26.3566 24.9383 26.0657C24.9383 25.7759 24.6954 25.5387 24.3962 25.5387H23.3119C21.8178 25.5387 20.6012 24.3572 20.6012 22.9039C20.6012 21.6307 21.5348 20.5673 22.7698 20.3227V19.215C22.7698 18.6322 23.2555 18.1611 23.854 18.1611C24.4536 18.1611 24.9383 18.6322 24.9383 19.215V20.269H26.0226C26.6222 20.269 27.1069 20.7401 27.1069 21.3229C27.1069 21.9058 26.6222 22.3769 26.0226 22.3769H23.3119C23.0126 22.3769 22.7698 22.614 22.7698 22.9039Z" fill="#FA5F1C"/>
</svg>

<svg width="60" height="58" fill="none" xmlns="http://www.w3.org/2000/svg"><rect opacity=".05" y=".47" width="59.034" height="57.383" rx="9.839" fill="#FA5F1C"/><path fill-rule="evenodd" clip-rule="evenodd" d="m39.681 27.832-3.449-3.038-4.628 11.922 8.077-8.884zm-8.237 3.325 3.312-8.53.003-.006.84-2.166-4.155-1.563v12.265zm-1.91 4.921h-6.373l5.561 2.092.813-2.092zm-1.181 4.214-5.948-2.238 4.433 3.904 1.515-1.666zm-9.92-6.322h10.842V15H18.433v18.97zm23.583-5.522-14.28 15.706a1.09 1.09 0 0 1-.814.356c-.267 0-.527-.097-.727-.273l-9.574-8.434c-.005-.003-.005-.008-.011-.013-.005-.005-.013-.008-.017-.013-.064-.061-.105-.137-.153-.211-.024-.038-.059-.07-.077-.11-.002-.005-.006-.007-.007-.011-.024-.052-.025-.112-.039-.167l-.005-.02c-.015-.066-.042-.127-.045-.194v-.025l-.003-.015V13.945c0-.582.486-1.054 1.084-1.054H30.36c.6 0 1.084.472 1.084 1.054v2.686l5.94 2.234c.557.209.834.815.624 1.356l-.952 2.452 4.875 4.296c.44.388.477 1.046.085 1.479zM22.77 22.904c0 .29.243.527.542.527h1.084c1.495 0 2.71 1.181 2.71 2.635 0 1.273-.932 2.336-2.168 2.58v1.108c0 .583-.484 1.054-1.084 1.054-.598 0-1.084-.47-1.084-1.053V28.7h-1.084c-.599 0-1.085-.472-1.085-1.054 0-.583.486-1.054 1.085-1.054h2.711a.535.535 0 0 0 .541-.527.536.536 0 0 0-.542-.527h-1.084c-1.494 0-2.71-1.182-2.71-2.635 0-1.273.933-2.337 2.168-2.581v-1.108c0-.583.486-1.054 1.084-1.054.6 0 1.084.471 1.084 1.054v1.054h1.085c.6 0 1.084.471 1.084 1.054 0 .583-.485 1.054-1.084 1.054h-2.711c-.3 0-.542.237-.542.527z" fill="#FA5F1C"/></svg>
